!!!OTL: Land of the Silver Birch
!!!ARE: Canada
!!!AMD: Pentatonic
**kern
=1-
*clefG2
*k[b-]
*M2/2
*MM120
{2d/
4d/
4d/
=2
4a/
4a/
2a/}
=3
{2d/
4d/
4d/
=4
2a/
2a/}
=5
{2dd\
4cc\
4dd\
=6
4cc\
4a/
2f/
=7
4g/
2f/
4g/
=8
1a}
=9
{2dd\
4cc\
4dd\
=10
4cc\
4a/
2f/}
=11
{4g/
2f/
4g/
=12
4a/
4f/
2d/}
=13||
!! Refrain
{4d/
8d/L
8d/J
4d/
4f/
=14
4d^/
8d/L
8d/J
4d/
4f/}
=15
{4d^/
8d/L
8d/J
4d/
4f/
=16
[1d
=17
(2d/]
2f/)
=18
[1d
=19
1d]}
==
*-
